!!!AGN: Motet
!!!SCT: Sherr (1989)
!!!voices: 5
!!!COM: Jachet of Mantua
!!!OTL: Sufficiebat nobis paupertas
**kern	**kern	**kern	**kern	**kern
*part5	*part4	*part3	*part2	*part1
*staff5	*staff4	*staff3	*staff2	*staff1
*I"Bassus II	*I"Bassus I	*I"Tenor	*I"Altus	*I"Superius
*I'B. II	*I'B. I	*I'T	*I'A	*I'S
*clefF4	*clefF4	*clefGv2	*clefGv2	*clefG2
*k[b-e-]	*k[b-e-]	*k[b-e-]	*k[b-e-]	*k[b-e-]
*B-:	*B-:	*B-:	*B-:	*B-:
*M2/1	*M2/1	*M2/1	*M2/1	*M2/1
*met(C|)	*met(C|)	*met(C|)	*met(C|)	*met(C)
!!section: Prima pars: Sufficiebat nobis paupertas
!!!OMD: Prima pars: Sufficiebat nobis paupertas
0r	1r	1G	0r	[0g
.	1G	1E-y	.	.
=1	=1	=1	=1	=1
0r	2E-y	2C	0r	1g]
.	2C	2.c	.	.
.	1D	.	.	1f
.	.	8B-yL	.	.
.	.	8AJ	.	.
.	.	2B-y	.	.
=2	=2	=2	=2	=2
0r	[0C	[0c	1r	0e-y
.	.	.	1G	.
=3	=3	=3	=3	=3
1G	0C]	1c]	1E-y	0e-y
2E-y	.	1r	2C	.
2C	.	.	[2G	.
=4	=4	=4	=4	=4
1D	1r	1d	4G]	[0d
.	.	.	8FL	.
.	.	.	8E-yJ	.
.	.	.	2F	.
[1GG	1D	1B-y	1G	.
=5	=5	=5	=5	=5
1GG]	2BB-y	2G	0r	1d]
.	2GG	2.G	.	.
1r	1AA	.	.	1c
.	.	8F#iL	.	.
.	.	8E-yJ	.	.
.	.	2F#i	.	.
=6	=6	=6	=6	=6
0r	2GG	1G	1r	1B-y
.	2.G	.	.	.
.	.	2D	1d	1A
.	8F#iL	.	.	.
.	8E-yJ	.	.	.
.	2F#i	[2d	.	.
=7	=7	=7	=7	=7
1G	1G	2d]	1B-y	0G
.	.	2.B-y	.	.
2E-y	1r	.	2G	.
.	.	4G	.	.
2C	.	[2c	[2G	.
=8	=8	=8	=8	=8
1D	0r	2c]	4G]	0d
.	.	.	8FL	.
.	.	.	8E-yJ	.
.	.	4B-y	2F	.
.	.	4A	.	.
1GG	.	2B-y	[1G	.
.	.	2G	.	.
=9	=9	=9	=9	=9
0C	1G	1E-y	0G]	1.c
.	2E-y	2C	.	.
.	2C	[2G	.	4B-y
.	.	.	.	4A
=10	=10	=10	=10	=10
1GG	1D	2G]	1r	0B-y
.	.	4F	.	.
.	.	4E-y	.	.
1r	1GG	2D	1G	.
.	.	[2G	.	.
=11	=11	=11	=11	=11
1G	0C	2G]	1E-y	0c
.	.	1E-y	.	.
1E-y	.	.	1C	.
.	.	2C	.	.
=12	=12	=12	=12	=12
1C	[0FF	2C	2C	[0A
.	.	2F	2C	.
2C	.	4F	2.F	.
.	.	4G	.	.
2C	.	4A	.	.
.	.	4B-y	4E-y	.
=13	=13	=13	=13	=13
2.F	0FF]	2c	2C	0A]
.	.	2F	2c	.
4E-y	.	.	.	.
[1C	.	2r	2c	.
.	.	2c	2c	.
=14	=14	=14	=14	=14
1C]	2r	2c	2.e-y	[0G
.	2C	2c	.	.
.	.	.	4d	.
2r	2C	2.e-y	2.c	.
2C	2C	.	.	.
.	.	4d	4B-y	.
=15	=15	=15	=15	=15
2C	2.E-y	2.c	2G	0G_
2C	.	.	2C	.
.	4D	4B-y	.	.
1E-y	2.C	2G	2r	.
.	.	2c	2G	.
.	4BB-y	.	.	.
=16	=16	=16	=16	=16
[0D	[0GG	2B-y	2G	0G_
.	.	2G	2G	.
.	.	2G	2.B-y	.
.	.	2G	.	.
.	.	.	4A	.
=17	=17	=17	=17	=17
1D]	1GG]	2.B-y	2.G	0G]
.	.	4A	4F	.
2r	1C	2.G	2.E-y	.
2C	.	.	.	.
.	.	4F	4D	.
=18	=18	=18	=18	=18
2C	2r	2.E-y	1C	0r
2C	2C	.	.	.
.	.	4D	.	.
2.E-y	2C	1C	1r	.
.	2C	.	.	.
4D	.	.	.	.
=19	=19	=19	=19	=19
2.C	1E-y	1r	2r	0G
.	.	.	2C	.
4BB-y	.	.	.	.
2GG	2D	2r	2D	.
2C	2r	2c	2C	.
=20	=20	=20	=20	=20
0FF	2r	2d	1F	[0A
.	2C	2c	.	.
.	2D	2.f	1F	.
.	2C	.	.	.
.	.	4e-y	.	.
=21	=21	=21	=21	=21
1r	2.F	2d	2r	1A]
.	.	2c	1F	.
.	4E-y	.	.	.
2r	1D	1d	.	1B-y
2GG	.	.	2G	.
=22	=22	=22	=22	=22
2AA-X	0C	0r	2E-y	[0c
2FF	.	.	2.A-i	.
2.C	.	.	.	.
.	.	.	4G	.
.	.	.	[2G	.
4BB-y	.	.	.	.
=23	=23	=23	=23	=23
1AA	1r	0r	2G]	1c]
.	.	.	2F	.
[1GG	[1G	.	2G	2B-y
.	.	.	4F	2A
.	.	.	4E-y	.
=24	=24	=24	=24	=24
1GG]	2G]	1.G	1D	0G
.	2F	.	.	.
[1G	2E-y	.	1r	.
.	2D	2F	.	.
=25	=25	=25	=25	=25
2G]	1C	2E-y	1.G	[0c
2F	.	2D	.	.
2E-y	1r	1C	.	.
2D	.	.	2F	.
=26	=26	=26	=26	=26
2.C	1.G	0r	1E-y	1c]
4BB-y	.	.	.	.
1GG	.	.	1D	1d
.	2F	.	.	.
=27	=27	=27	=27	=27
0C	2.E-y	1.c	1C	0e-y
.	4D	.	.	.
.	[1C	.	[1c	.
.	.	2B-y	.	.
=28	=28	=28	=28	=28
1FF	1C]	2.A	2c]	0f
.	.	.	2B-y	.
.	.	4G	.	.
2.C	1FF	2F	2A	.
.	.	[2c	2A	.
4D	.	.	.	.
=29	=29	=29	=29	=29
2E-y	2.C	4c]	1G	[0e-y
.	.	4B-y	.	.
2.C	.	4c	.	.
.	4D	4B-y	.	.
.	2.E-y	1G	2r	.
4D	.	.	.	.
[2E-y	.	.	2C	.
.	4D	.	.	.
=30	=30	=30	=30	=30
4E-]	2.C	2r	2.G	1e-]
4C	.	.	.	.
1G	.	2C	.	.
.	4BB-y	.	4A	.
.	[1GG	2.G	2.B-y	1d
4F	.	.	.	.
4E-y	.	4A	4A	.
=31	=31	=31	=31	=31
0D	0GG_	2.B-y	2.G	[0d
.	.	4A	4F	.
.	.	2.G	2D	.
.	.	.	[2B-y	.
.	.	4F	.	.
=32	=32	=32	=32	=32
2r	1GG]	2.D	4B-]	1d]
.	.	.	4A	.
2GG	.	.	4G	.
.	.	8CL	4F	.
.	.	8DJ	.	.
2C	2r	2E-y	[1G	2c
2D	2GG	2D	.	2B-y
=33	=33	=33	=33	=33
2.E-y	2.C	2r	1G]	0c
.	.	2C	.	.
4D	4D	.	.	.
2.C	1E-y	2.G	2r	.
.	.	.	2C	.
4BB-y	.	4A	.	.
=34	=34	=34	=34	=34
0GG	[0D	2.B-y	2.G	[0d
.	.	4A	4A	.
.	.	1G	1B-y	.
=35	=35	=35	=35	=35
2r	0D]	1.F	1.A	0d_
2D	.	.	.	.
2F	.	.	.	.
2F	.	4E-y	4G	.
.	.	4D	4F	.
=36	=36	=36	=36	=36
1G	1GG	1D	1B-y	0d_
2.F	1D	2r	1A	.
.	.	2F	.	.
4E-y	.	.	.	.
=37	=37	=37	=37	=37
4D	2F	2A	0r	0d]
4C	.	.	.	.
2D	2F	2A	.	.
1GG	1G	1B-y	.	.
=38	=38	=38	=38	=38
1D	2.F	1A	2r	0r
.	.	.	2F	.
.	4E-y	.	.	.
2F	4D	1r	2A	.
.	4C	.	.	.
2F	2D	.	2A	.
=39	=39	=39	=39	=39
1G	2.GG	0r	0B-y	0d
.	4AA	.	.	.
[1F	1BB-y	.	.	.
=40	=40	=40	=40	=40
0F]	0FF	2r	2A	0f
.	.	2F	2F	.
.	.	2A	2c	.
.	.	2A	2c	.
=41	=41	=41	=41	=41
1BB-y	0r	1B-y	1d	0f
2F	.	2A	1c	.
2F	.	2F	.	.
=42	=42	=42	=42	=42
2.C	0r	2c	2r	[0g
.	.	2c	2c	.
4BB-y	.	.	.	.
1GG	.	1d	2c	.
.	.	.	2BnXi	.
=43	=43	=43	=43	=43
[0C	0r	0c	2.c	0g]
.	.	.	4B-y	.
.	.	.	[1G	.
=44	=44	=44	=44	=44
1C]	2r	1r	1G]	1c
.	2C	.	.	.
2BB-y	2F	2r	1r	1d
2D	2F	2A	.	.
=45	=45	=45	=45	=45
1C	1G	2c	2r	1e-y
.	.	2c	2C	.
1r	2F	2d	[1F	[1f
.	2BB-y	2d	.	.
=46	=46	=46	=46	=46
2r	2F	0c	2F]	1f]
2FF	2F	.	2F	.
2C	1C	.	2G	1enXi
2C	.	.	2G	.
=47	=47	=47	=47	=47
2D	1r	1A	0F	0f
2D	.	.	.	.
[1BB-y	2r	2.B-y	.	.
.	2BB-y	.	.	.
.	.	4A	.	.
=48	=48	=48	=48	=48
0BB-_	2F	4B-y	0r	1.d
.	.	4c	.	.
.	2F	2.d	.	.
.	2G	.	.	.
.	.	4c	.	.
.	2G	[2B-y	.	2e-y
=49	=49	=49	=49	=49
2BB-]	1F	4B-]	2r	1f
.	.	4F	.	.
2AA	.	1B-y	2F	.
1GG	1r	.	2F	1g
.	.	4A	2E-y	.
.	.	4G	.	.
=50	=50	=50	=50	=50
1FF	2r	1A	1F	2c
.	2FF	.	.	2d
1r	2C	2r	2C	2e-y
.	2C	2G	2c	4d
.	.	.	.	4e-y
=51	=51	=51	=51	=51
1r	2D	2G	2c	1f
.	2D	2F	2B-y	.
2r	1C	2G	1c	[1e-y
2C	.	2C	.	.
=52	=52	=52	=52	=52
2C	0r	2.G	1G	2e-]
2BB-y	.	.	.	2d
.	.	4F	.	.
2C	.	2E-y	2.G	2c
2GG	.	2D	.	2BnXi
.	.	.	4F	.
=53	=53	=53	=53	=53
2.C	2r	1C	2.E-y	0c
.	2G	.	.	.
4BB-y	.	.	4D	.
2AA	2G	1r	1C	.
2AA	2F	.	.	.
=54	=54	=54	=54	=54
[0GG	2G	2.G	0r	[0B-y
.	2GG	.	.	.
.	.	4F	.	.
.	2.G	2E-y	.	.
.	.	2D	.	.
.	4F	.	.	.
=55	=55	=55	=55	=55
0GG]	2E-y	2.G	0r	0B-_
.	2.D	.	.	.
.	.	8FL	.	.
.	.	8E-yJ	.	.
.	.	1D	.	.
.	4C	.	.	.
.	4BB-y	.	.	.
.	4AA	.	.	.
=56	=56	=56	=56	=56
0r	[0GG	1r	2.G	0B-_
.	.	.	4F	.
.	.	2.G	2E-y	.
.	.	.	2D	.
.	.	4F	.	.
=57	=57	=57	=57	=57
1r	0GG]	2E-y	2.G	0B-]
.	.	2D	.	.
.	.	.	8FL	.
.	.	.	8E-yJ	.
2r	.	2.d	1D	.
2G	.	.	.	.
.	.	8cL	.	.
.	.	8B-yJ	.	.
=58	=58	=58	=58	=58
2G	2.D	1A	2r	0r
2F	.	.	2d	.
.	4C	.	.	.
2G	2BB-y	1r	2d	.
2C	2AA	.	2c	.
=59	=59	=59	=59	=59
2.G	1GG	2r	1d	0B-y
.	.	2G	.	.
4F	.	.	.	.
2E-y	1r	2G	2G	.
2D	.	2F	2d	.
=60	=60	=60	=60	=60
0C	0r	2G	2.e-y	0c
.	.	2C	.	.
.	.	.	4d	.
.	.	2r	1c	.
.	.	2G	.	.
=61	=61	=61	=61	=61
1GG	2r	2G	1B-y	0d
.	2G	2G	.	.
1D	2G	2.A	1r	.
.	2F	.	.	.
.	.	4B-y	.	.
=62	=62	=62	=62	=62
0C	2G	[0c	2.G	[0e-y
.	2C	.	.	.
.	.	.	4F	.
.	2.G	.	2.E-y	.
.	4F	.	4D	.
=63	=63	=63	=63	=63
2r	2.E-y	0c]	1C	0e-]
1C	.	.	.	.
.	4D	.	.	.
.	1C	.	1G	.
2C	.	.	.	.
=64	=64	=64	=64	=64
[0GG	0D	2B-y	1r	[0d
.	.	1G	.	.
.	.	.	2r	.
.	.	2G	[2G	.
=65	=65	=65	=65	=65
0GG]	1r	2D	2G]	0d]
.	.	2D	2G	.
.	2r	2.d	2D	.
.	[2D	.	2D	.
.	.	4c	.	.
=66	=66	=66	=66	=66
1GG	2D]	2.B-y	2.d	0d
.	2D	.	.	.
.	.	4A	4c	.
2.G	1GG	[1G	2.B-y	.
4F	.	.	4A	.
=67	=67	=67	=67	=67
2.E-y	2.C	2G]	1G	1e-y
.	.	1c	.	.
4D	4C	.	.	.
1C	1FF	.	1A	[1f
.	.	2c	.	.
=68	=68	=68	=68	=68
2.D	1BB-y	1F	2.B-y	2f]
.	.	.	.	2e-y
4C	.	.	4A	.
2D	2BB-y	1r	2F	2d
2E-y	2C	.	[2c	2c
=69	=69	=69	=69	=69
1D	1GG	2r	2c]	1d
.	.	1G	2BnXi	.
[1E-y	[1C	.	1c	[1c
.	.	2G	.	.
=70	=70	=70	=70	=70
2E-]	2C]	1C	2r	1c]
4D	4BB-y	.	1G	.
4C	4AA	.	.	.
1D	1GG	1r	.	1B-y
.	.	.	2G	.
=71	=71	=71	=71	=71
2r	0FF	1r	2C	0A
1F	.	.	2C	.
.	.	2r	2F	.
2F	.	[2c	2F	.
=72	=72	=72	=72	=72
1C	2r	2c]	2E-y	[0Gl
.	1C	2c	4D	.
.	.	.	4C	.
2r	.	2G	1E-y	.
2C	2C	2c	.	.
=73	=73	=73	=73	=73
2.G	2GG	2c	1D	0G_
.	2GG	2B-y	.	.
4F	.	.	.	.
2.E-y	2.G	[1e-y	1C	.
4D	4F	.	.	.
=74	=74	=74	=74	=74
0C	2.E-y	2e-]	0c	0G_
.	.	4d	.	.
.	4D	4c	.	.
.	2.C	1e-y	.	.
.	4BB-y	.	.	.
=75	=75	=75	=75	=75
00D	00GG	00d	00B-y	00G]
=76||	=76||	=76||	=76||	=76||
*M2/1	*M2/1	*M2/1	*M2/1	*M2/1
*met(C|)	*met(C|)	*met(C|)	*met(C|)	*met(C|)
!!section: Secunda pars: Heu me filii mi
!!!OMD: Secunda pars: Heu me filii mi
1r	0r	0r	1C	1.g
1C	.	.	1C	.
.	.	.	.	2f
=77	=77	=77	=77	=77
1C	1C	1r	1G	1e-y
1G	1C	1G	1r	1e-y
=78	=78	=78	=78	=78
1r	1G	1G	1G	1.d
1GG	[1G	1d	1G	.
.	.	.	.	2c
=79	=79	=79	=79	=79
1GG	2G]	0r	1d	2B-y
.	2F	.	.	2A
2G	2.E-y	.	1r	1G
[2G	.	.	.	.
.	4D	.	.	.
=80	=80	=80	=80	=80
2G]	1BB-y	1r	2r	1d
2F	.	.	2D	.
1E-y	1C	[1G	2E-y	2.c
.	.	.	[2G	.
.	.	.	.	8B-yL
.	.	.	.	8AJ
=81	=81	=81	=81	=81
1D	1GG	1G]	4G]	1B-y
.	.	.	4F	.
.	.	.	2D	.
1C	1r	1G	2.E-y	1c
.	.	.	8DL	.
.	.	.	8E-yJ	.
=82	=82	=82	=82	=82
1C	1FF	0c	1F	0A
1F	1FF	.	1C	.
=83	=83	=83	=83	=83
1E-y	1.C	1.e-y	1C	[0G
2C	.	.	1G	.
2D	2BB-y	2d	.	.
=84	=84	=84	=84	=84
1E-y	0C	2.c	1r	0G]
.	.	4d	.	.
2r	.	1e-y	2.E-y	.
2C	.	.	.	.
.	.	.	8DL	.
.	.	.	8E-yJ	.
=85	=85	=85	=85	=85
2D	2.BB-y	1d	2F	1r
2F	.	.	1D	.
.	4AA	.	.	.
2F	1GG	1r	.	1G
2E-y	.	.	4C	.
.	.	.	4BB-y	.
=86	=86	=86	=86	=86
2.F	1FF	2r	1C	1.A
.	.	2c	.	.
4E-y	.	.	.	.
1D	1r	2d	1r	.
.	.	[2f	.	2B-y
=87	=87	=87	=87	=87
0C	0r	2f]	2r	1.c
.	.	1e-y	2G	.
.	.	.	2A	.
.	.	4d	2c	4B-y
.	.	4c	.	4A
=88	=88	=88	=88	=88
0r	2r	2d	2c	1G
.	2GG	2d	2B-y	.
.	2AA	1c	2.c	[1c
.	2C	.	.	.
.	.	.	4B-y	.
=89	=89	=89	=89	=89
0r	2C	1r	0G	2c]
.	2BB-y	.	.	2d
.	1C	2r	.	1e-y
.	.	[2c	.	.
=90	=90	=90	=90	=90
1r	1D	2c]	0r	1f
.	.	2B-y	.	.
2r	1C	[1G	.	[1e-y
[2E-y	.	.	.	.
=91	=91	=91	=91	=91
2E-]	2r	2G]	0r	2e-]
2D	1G	1B-y	.	2d
2GG	.	.	.	[1d
[2BB-y	2F	4A	.	.
.	.	4G	.	.
=92	=92	=92	=92	=92
2BB-]	2D	1F	1r	2d]
2D	2F	.	.	4c
.	.	.	.	4B-y
1C	1E-y	[1G	2r	1c
.	.	.	[2c	.
=93	=93	=93	=93	=93
[0GG	0D	0G_	2c]	[0d
.	.	.	2B-y	.
.	.	.	2G	.
.	.	.	[2B-y	.
=94	=94	=94	=94	=94
1GG]	2r	1G]	4B-]	0d]
.	.	.	4A	.
.	2D	.	1G	.
1D	2F	2r	.	.
.	2F	2A	2F#i	.
=95	=95	=95	=95	=95
2.C	2E-y	2c	0G	1r
.	2E-y	2c	.	.
4BB-y	.	.	.	.
1GG	[1D	2B-y	.	1d
.	.	2B-y	.	.
=96	=96	=96	=96	=96
2r	0D]	0A	1r	1f
2D	.	.	.	.
2F	.	.	2r	1f
2F	.	.	2A	.
=97	=97	=97	=97	=97
2E-y	2.C	2r	2c	0g
2E-y	.	1.G	2c	.
.	4BB-y	.	.	.
2D	1GG	.	2B-y	.
2BB-y	.	.	2B-y	.
=98	=98	=98	=98	=98
1F	2FF	2A	2A	2c
.	2BB-y	2B-y	2F	2d
2E-y	2C	2G	1c	2e-y
4D	2FF	2F	.	[2f
4C	.	.	.	.
=99	=99	=99	=99	=99
2D	2BB-y	1G	2B-y	2f]
2E-y	2C	.	4A	2e-y
.	.	.	4G	.
2C	2FF	[1F	2A	1f
2D	[2BB-y	.	[2B-y	.
=100	=100	=100	=100	=100
2BB-y	1BB-]	1F]	4B-]	2.d
.	.	.	4A	.
1F	.	.	2B-y	.
.	.	.	.	4e-y
.	2FF	[1c	2A	2f
[2E-y	[2C	.	[2G	2g
=101	=101	=101	=101	=101
2E-]	1C]	1c]	4G]	4c
.	.	.	4F	4d
2.C	.	.	2G	4e-y
.	.	.	.	8dL
.	.	.	.	8e-yJ
.	2FF	2r	2A	2f
4D	.	.	.	.
2E-y	2C	[2c	[2G	[2e-y
=102	=102	=102	=102	=102
2.C	2r	2c]	4G]	4e-]
.	.	.	4F	4d
.	1C	2c	4E-y	4c
4D	.	.	4D	4B-y
1E-y	.	1G	2C	1c
.	2C	.	[2G	.
=103	=103	=103	=103	=103
2D	[0GG	1r	2G]	[0B-y
1G	.	.	2G	.
.	.	2r	1D	.
2G	.	[2G	.	.
=104	=104	=104	=104	=104
1D	0GG]	2G]	2r	0B-]
.	.	2G	2D	.
2r	.	1D	2.d	.
2D	.	.	.	.
.	.	.	4c	.
=105	=105	=105	=105	=105
2.G	0GG	2r	2.B-y	1r
.	.	2D	.	.
4F	.	.	4A	.
2E-y	.	2.G	1G	1B-y
2D	.	.	.	.
.	.	4F	.	.
=106	=106	=106	=106	=106
2.C	1..G	1E-y	1r	1c
4BB-y	.	.	.	.
1GG	.	1D	2r	1d
.	.	.	[2G	.
.	4F	.	.	.
=107	=107	=107	=107	=107
1.C	1.E-y	2C	2G]	0e-y
.	.	2.c	2G	.
.	.	.	2C	.
.	.	4B-y	.	.
2C	2C	2c	2C	.
=108	=108	=108	=108	=108
0GG	1D	2B-y	2.G	0d
.	.	1G	.	.
.	.	.	4A	.
.	2r	.	[1B-y	.
.	[2G	2G	.	.
=109	=109	=109	=109	=109
1GG	2G]	2D	2B-]	1d
.	2G	1G	4A	.
.	.	.	4B-y	.
2C	2C	.	1c	2e-y
2FF	2C	2A	.	[2f
=110	=110	=110	=110	=110
1.BB-y	2D	1.B-y	1F	4f]
.	.	.	.	4e-y
.	2.F	.	.	4d
.	.	.	.	4c
.	.	.	2r	2d
.	4E-y	.	.	.
2C	2C	[2G	[2G	[2c
=111	=111	=111	=111	=111
1GG	1D	4G]	2G]	2c]
.	.	4A	.	.
.	.	2B-y	2G	2B-y
1FF	1F	2c	2C	1A
.	.	4C	[2C	.
.	.	4D	.	.
=112	=112	=112	=112	=112
1.C	2E-y	4E-y	4C]	[0Gl
.	.	4F	4D	.
.	4C	2.G	4E-y	.
.	4D	.	4F	.
.	4E-y	.	2.G	.
.	4F	4A	.	.
2GG	[2G	4B-y	.	.
.	.	4c	8FL	.
.	.	.	8E-yJ	.
=113	=113	=113	=113	=113
2BB-y	2G]	2d	2D	0G_
2C	4F	2c	1G	.
.	4E-y	.	.	.
2GG	2D	2B-y	.	.
2C	[2E-y	2c	4C	.
.	.	.	4D	.
=114	=114	=114	=114	=114
2r	4E-]	4C	4E-y	0G_
.	4D	4D	4F	.
4C	1C	4E-y	2.G	.
4D	.	4F	.	.
4E-y	.	2.G	.	.
4F	.	.	4A	.
[2G	2GG	.	4B-y	.
.	.	8FL	4c	.
.	.	8E-yJ	.	.
=115	=115	=115	=115	=115
2G]	2BB-y	2D	2d	0G_
4F	2C	2.G	1c	.
4E-y	.	.	.	.
1D	1GG	.	.	.
.	.	4F	.	.
.	.	2D	2BnXi	.
=116	=116	=116	=116	=116
*	*^	*	*	*
00Cl\	00CCl\	00Cl/	00E-yl	00cl	00G]
*	*v	*v	*	*	*
==	==	==	==	==
*-	*-	*-	*-	*-
!!!system-decoration: [*]
!!!RDF**kern: i = editorial accidental
!!!RDF**kern: l = terminal long
!!!ENC: Benjamin Ory
!!!END: 2021/1/18
!!!EED: Benjamin Ory
!!!EEV: 2021/05/17
!!!YEC: Copyright 2021 Benjamin Ory, All Rights Reserved
!!!ONB: Translated from MusicXML on 2021/05/17